X: 104106
Q:"Reel."
M: C
L: 1/8
K: G
|: g |\
dG G/G/G (dc)Bc | dG G/G/G d2Bd |\
cA A/A/A (cB)AB | cA A/A/A d2B :|\
fgeg fgef | gaba gbe |]



